!!!!SEGMENT: pl-kc--40102-iii-1-saf--001-037_zielenski-mikolaj--offertoria-totius-anni-commune-virginum-afferentur-regi-virgines.krn
!!!cenid: 16xx:1515
!!!COM: Zieleński, Mikołaj
!!!COM-rismID: pe30013481
!!!CDT: <1611->1611
!!!CNT: Polish
!!!GTL: Offertoria totius anni
!!!OTL: Commune Virginum/Afferentur Regi Virgines
!!!OMV: 037
!!!PDT: 1611
!!!AGN:
!!!SMS-siglum: PL-Kc
!!!SMS-shelfmark: 40102 III/1 Saf.
!!!SMS-shelfwork: 001-037 G
!!!SMS-variant:
!!!SMS-altvar:
!!!NIFC-rismSourceID: 990069886
!!!NIFC-islandoraID:
!!!URL-pdf-islandora:
!!!URL-scan: https://cyfrowe.mnk.pl/dlibra/publication/24235/edition/23926/content?ref=desc @EN{Scan on The National Museum in Krakow Website} @PL{Skany w portalu Biblioteka Cyfrowa Muzeum Narodowego w Krakowie}
!!!ONB-nifc: UWAGA: str. 33-34. Uwaga: W xml metrum 2/1 do źródłowego C| i odpowiednio 3/1 do 3/2
!!!AIN: 4 organ
!!!key:
**kern	**kern	**kern	**kern
*group1	*group1	*group1	*group1
*part4	*part3	*part2	*part1
*staff4	*staff3	*staff2	*staff1
*I""Organo	*I""Organo	*I""Organo	*I""Organo
*I''org	*I''org	*I''org	*I''org
*Iorgan	*Iorgan	*Iorgan	*Iorgan
*ICklav	*ICklav	*ICklav	*ICklav
*clefF4	*clefC3	*clefF3	*clefC1
*k[]	*k[]	*k[]	*k[]
*C:	*C:	*C:	*C:
*M2/1	*M2/1	*M2/1	*M2/1
*met(C|)	*met(C|)	*met(C|)	*met(C|)
=1	=1	=1	=1
!LO:CL:ed:problem=błędny klucz F4	!	!	!
*clefF5	*	*	*
!	!	!LO:TX:a:t=Afferentur Regi Virgines.	!LO:TX:a:t=Commune Virginum. A 8.
!LO:TX:t=P:problem=przy kluczu błędnie BB-	!LO:TX:t=P:problem=przy kluczu błędnie b-	!LO:TX:t=P:problem=przy kluczu błędnie BB-	!LO:TX:t=P:problem=przy kluczu błędnie b-
1r	1.G	00r	00r
1.C	.	.	.
.	2E/	.	.
=2-	=2-	=2-	=2-
.	2.A/	.	.
2AA/	.	.	.
.	4G/	.	.
2.D\	2F#X/	.	.
.	2F#/	.	.
4C\	.	.	.
=3	=3	=3	=3
1.GG	2.G/	00r	00r
.	4A/	.	.
.	4B/	.	.
.	4G/	.	.
2EE/	2c/	.	.
=4-	=4-	=4-	=4-
2.AA/	1.c	.	.
4GG/	.	.	.
2.FF/	.	.	.
.	2A/	.	.
4EE/	.	.	.
=5	=5	=5	=5
2DD/	2.d\	00r	00r
2.GG/	.	.	.
.	4c/	.	.
.	4B/	.	.
4FF/	4A/	.	.
4EE/	2B/	.	.
4DD/	.	.	.
=6-	=6-	=6-	=6-
*lig	*	*	*
1CC	2c/	.	.
.	2e\	.	.
*col	*	*	*
2.FF/	2c\	.	.
.	[y2f\	.	.
*Xlig	*	*	*
4GG/	.	.	.
*Xcol	*	*	*
=7	=7	=7	=7
!	!LO:N:xstem:cue	!	!
2AA/	4f\]	00r	00r
.	4e\	.	.
2AA/	2.e\	.	.
2DD/	.	.	.
.	8d\	.	.
.	8c\	.	.
2DD/	2d\	.	.
=8-	=8-	=8-	=8-
2.AA/	2e\	.	.
.	1c	.	.
4GG/	.	.	.
2FF/	.	.	.
!	!	!LO:SIC:v:t=błędna wysokość custos	!
2DD/	[y2d\	.	.
*custos:EE	*custos:c	*custos:A	*custos:g
!!LO:PB:g=original
=9	=9	=9	=9
!	!LO:N:xstem:cue	!	!LO:TX:t=P:problem=błędna zmiana klucza na G2
2.EE/	4d\]	0r	0r
.	4c/	.	.
.	4c/	.	.
4FF/	8B/	.	.
.	8A/	.	.
0GG	4B/	.	.
.	4G/	.	.
.	2.c/	.	.
=10-	=10-	=10-	=10-
.	.	1r	1.g
.	8B/	.	.
.	8A/	.	.
.	2B/	.	.
1CC	1c	[y1c	.
.	.	.	2e/
=11	=11	=11	=11
!	!	!LO:N:xstem:cue:vis=4	!
00r	00r	2c\]	2.a\
.	.	2A\	.
.	.	.	4g\
.	.	2.d\	2f#X/
.	.	.	2f#/
.	.	4c\	.
=12-	=12-	=12-	=12-
.	.	1.G	2.g/
.	.	.	4a\
.	.	.	4b\
.	.	.	4g/
.	.	2E/	2cc\
=13	=13	=13	=13
00r	00r	2.A\	1.cc
.	.	4G\	.
.	.	2.F\	.
.	.	.	2a\
.	.	4E/	.
=14-	=14-	=14-	=14-
.	.	2D/	2.dd\
.	.	2.G\	.
.	.	.	4cc\
.	.	.	4b\
.	.	4F/	4a\
.	.	4E/	2b\
.	.	4D/	.
=15	=15	=15	=15
00r	00r	1C	2cc\
.	.	.	2ee\
.	.	2.F/	2cc\
.	.	.	2.ff\
.	.	4G\	.
=16-	=16-	=16-	=16-
.	.	2A\	.
.	.	.	4ee\
.	.	2A\	2.ee\
.	.	2D/	.
.	.	.	8dd\
.	.	.	8cc\
.	.	2D/	2dd\
=17	=17	=17	=17
00r	00r	2.A\	2ee\
.	.	.	1cc
.	.	4G\	.
.	.	2F/	.
.	.	2D/	2dd\
=18-	=18-	=18-	=18-
.	.	2.E/	4dd\
.	.	.	4dd\
!	!	!	!LO:N:vis=8
.	.	.	4b\
!	!	!	!LO:N:vis=8
.	.	4F/	4a\
.	.	1G	4b\
.	.	.	4g/
.	.	.	[y2cc\
=19	=19	=19	=19
!	!	!	!LO:N:xstem:cue
1r	1r	1GG	4cc\]
.	.	.	8b\
.	.	.	8a\
.	.	.	2b\
2r	2r	1C	1cc
2.CC/	2.g\	.	.
=20-	=20-	=20-	=20-
.	.	0r	0r
4CC/	4g\	.	.
2FF/	2f\	.	.
1CC	1e	.	.
=21	=21	=21	=21
2GG/	2d\	00r	00r
1DD	1f	.	.
2EE/	4e\	.	.
.	4d\	.	.
=22-	=22-	=22-	=22-
2FF/	4c/	.	.
.	4A/	.	.
2DD/	2.d\	.	.
1AA	.	.	.
.	8c#X/	.	.
.	8B/	.	.
.	2c#/	.	.
=23	=23	=23	=23
1DD	1d	2r	2r
.	.	2.D/	2.dd\
1r	1r	.	.
.	.	4BB/	4dd\
.	.	2C/	2cc\
=24-	=24-	=24-	=24-
0r	0r	4G\	1b
.	.	4GG/	.
.	.	4BB/	.
.	.	4C/	.
.	.	2D/	2a\
.	.	[>2AA/	[>2cc\
=25	=25	=25	=25
00r	00r	2AA/]	2cc\]
.	.	2BB/	4b\
.	.	.	4a\
.	.	2C/	4g/
.	.	.	4e/
.	.	4BB/	2.a\
.	.	4AA/	.
=26-	=26-	=26-	=26-
.	.	2D/	.
!	!	!	!LO:SIC:v:s=8gn/
.	.	.	8g#X/
!	!	!	!LO:SIC:v:s=8f#/
.	.	.	8f/
.	.	2GG/	2.gny/
.	.	1D	.
.	.	.	8f#X/
.	.	.	8e/
.	.	.	2f#/
=27	=27	=27	=27
2r	2r	1GG	1g
2.GG/	2.d\	.	.
.	.	2r	2r
4GG/	4d\	.	.
2CC/	2e\	2G\	2.cc\
=28-	=28-	=28-	=28-
1FF	4A/	2C/	.
.	4B/	.	4cc\
.	4c/	2C/	2b\
.	4d\	.	.
1CC	1e	4C/	1ee
.	.	4D/	.
.	.	4E/	.
.	.	4C/	.
=29	=29	=29	=29
2r	2r	1G	1dd
2.GG/	2.B/	.	.
.	.	2r	2r
4GG/	4B/	.	.
2DD/	2d\	2A\	2.dd\
=30-	=30-	=30-	=30-
2.AA/	2c/	2A\	.
.	.	.	4dd\
.	1A	2A\	2cc\
4GG/	.	.	.
1FF	.	4A\	1ff
.	.	4G\	.
.	2A/	4F/	.
.	.	8E/	.
.	.	8D/	.
*custos:CC	*custos:e	*custos:E	*custos:ee
!!LO:LB:g=original
=31	=31	=31	=31
*k[]	*k[]	*k[]	*k[]
2CC/	2e\	2E/	2ee\
1GG	4B/	4G\	1dd
.	4c/	4A\	.
.	4d\	4B\	.
.	4B/	4G\	.
2EE/	2e\	2c\	2ee\
=32-	=32-	=32-	=32-
2FF/	2A/	2F/	4dd\
.	.	.	4cc\
2CC/	2e\	2G\	2.cc\
1GG	2.g\	1G	.
.	.	.	8b\
.	.	.	8a\
.	.	.	2b\
.	4f\	.	.
=33	=33	=33	=33
*M3/2	*M3/2	*M3/2	*M3/2
0.CC	0.e	0.G	0.cc
=34-	=34-	=34-	=34-
00.r	00.r	0G	0b
.	.	1C	1ee
=35-	=35-	=35-	=35-
.	.	1.G	1.dd
.	.	2G\	2dd\
.	.	1C	1cc
=36-	=36-	=36-	=36-
0GG	0B	0.r	0.r
1CC	1e	.	.
=37	=37	=37	=37
1.GG	1.d	0.r	0.r
2GG/	2d\	.	.
1CC	1c	.	.
=38-	=38-	=38-	=38-
0.r	0.r	0G	0b
.	.	1C	1ee
=39-	=39-	=39-	=39-
00.r	00.r	1.G	1.dd
.	.	2G\	2dd\
.	.	1C	1cc
=40-	=40-	=40-	=40-
.	.	1G	1b
.	.	1G	1b
.	.	1E	1cc
=41	=41	=41	=41
0.r	0.r	1.F	1.a
.	.	2D/	2a\
.	.	1A	1cc#X
=42-	=42-	=42-	=42-
!	!LO:TX:a:t=P:problem=# above	!	!
1D	1f#X	0.D	0.dd
1D	1f#	.	.
1BB	1g	.	.
=43-	=43-	=43-	=43-
!LO:TX:t=P:problem=zbędna pauza w 1 partii	!LO:TX:t=P:problem=zbędna pauza w 1 partii	!LO:TX:t=P:problem=zbędna pauza w 1 partii	!LO:TX:t=P:problem=zbędna pauza 0.r
0.ryy	0.ryy	0.ryy	0.r
=44-	=44-	=44-	=44-
1.C	1.e	00.r	00.r
2GG/	2g\	.	.
1D	1f#X	.	.
=45-	=45-	=45-	=45-
0.GG	0.g	.	.
=46	=46	=46	=46
0GG	0B	00.r	00.r
1CC	1e	.	.
=47-	=47-	=47-	=47-
1.GG	1.d	.	.
2GG/	2d\	.	.
1CC	1c	.	.
=48-	=48-	=48-	=48-
00.r	00.r	0G	0b
.	.	1C	1ee
=49-	=49-	=49-	=49-
.	.	1.G	1.dd
.	.	2G\	2dd\
.	.	1C	1cc
=50	=50	=50	=50
0C	0e	00.r	00.r
1GG	1g	.	.
=51-	=51-	=51-	=51-
1.D	1.f#X	.	.
2D\	2f#\	.	.
1GG	1g	.	.
=52-	=52-	=52-	=52-
0GG	0d	0G	0dd
1DD	1a	1F	1ff
=53-	=53-	=53-	=53-
!	!LO:N:vis=1	!	!
1.AA	1.a	1.A	1.ee
2AA/	2a\	2A\	2ee\
1DD	1f#y	1A	1dd
=54	=54	=54	=54
1GG	00.r	1G	1dd
1GG	.	1G	1dd
1EE	.	1G	1ee
=55-	=55-	=55-	=55-
1.FF	.	1.A	1.cc
2FF/	.	2A\	2cc\
1CC	.	1G	1ee
=56-	=56-	=56-	=56-
0GG	1r	0G	0dd
.	1r	.	.
1GG	1d	1D	1dd
=57-	=57-	=57-	=57-
1.DD	1.d	1.D	1.ff
2DD/	2d\	2D/	2ff\
1FF	1A	1C	1cc
=58	=58	=58	=58
1CC	2e\	1C	1ee
.	1g	.	.
0GG	.	0D	0dd
.	4f\	.	.
.	4e\	.	.
.	1d	.	.
=59-	=59-	=59-	=59-
*M2/1	*M2/1	*M2/1	*M2/1
*met(C|)	*met(C|)	*met(C|)	*met(C|)
1CC	1g	2C/	2ee\
.	.	1c	1cc
0r	0r	.	.
.	.	2B\	2dd\
.	.	2.A\	1ee
.	.	4G\	.
=60	=60	=60	=60
00r	00r	2F/	2.a\
.	.	2D/	.
.	.	.	4ff\
.	.	2A\	2ff\
.	.	2A\	2ee\
=61-	=61-	=61-	=61-
.	.	1B-X	1dd
.	.	2.A\	2cc\
.	.	.	[<2ee\
.	.	4G\	.
=62	=62	=62	=62
0r	0r	2F/	2ee\]
.	.	2D/	1dd
.	.	4E/	.
.	.	4C/	.
.	.	4E/	2cc\
.	.	4F/	.
=63-	=63-	=63-	=63-
!LO:N:vis=1	!	!	!
2r	2r	1G	1b
1GG	1d	.	.
.	.	1r	1r
2FF/	2d\	.	.
=64	=64	=64	=64
1EE	1e	00r	00r
2DD/	2A/	.	.
2DD/	2f\	.	.
=65-	=65-	=65-	=65-
2AA/	2f\	.	.
2AA/	2e\	.	.
1BB-X	1d	.	.
=66	=66	=66	=66
2.AA/	2c/	0r	0r
*	*lig	*	*
.	1e	.	.
4GG/	.	.	.
2FF/	.	.	.
2DD/	1d	.	.
=67-	=67-	=67-	=67-
2GG/	.	1r	1r
*	*Xlig	*	*
2CC/	2c/	.	.
1GG	1B	2r	2r
!	!	!LO:TX:a:t=P:problem=brak początku ligatury	!
.	.	[<2G\	[<2dd\
*custos:CC	*custos:g	*custos:G	*custos:dd
!!LO:LB:g=original
=68	=68	=68	=68
*clefF5	*	*	*
0r	0r	2G\]	2dd\]
.	.	2E/	2ee\
.	.	1D	1ff
=69-	=69-	=69-	=69-
2r	2r	1C	1ee
2CC/	2g\	.	.
2CC/	2g\	1r	1r
2DD/	2f\	.	.
=70	=70	=70	=70
2.EE/	2.e\	0r	0r
4FF/	8d\	.	.
.	8c\	.	.
2GG/	4B/	.	.
.	4G/	.	.
2CC/	2.c/	.	.
=71-	=71-	=71-	=71-
2.GG/	.	1r	1r
.	8B/	.	.
.	8A/	.	.
.	2B/	.	.
4GG/	.	.	.
1CC	1c	2r	2r
.	.	[<2c\	[<2ee\
=72	=72	=72	=72
0r	0r	2c\]	2ee\]
.	.	2B\	2dd\
.	.	1A	1cc
=73-	=73-	=73-	=73-
2r	2r	1G	1b
1GG	1g	.	.
.	.	1r	1r
2DD/	2f\	.	.
=74	=74	=74	=74
1AA	1e	1r	1r
2DD/	2d\	2r	2r
1GG	1B	1G	1dd
=75-	=75-	=75-	=75-
.	.	.	.
2CC/	2c/	2G\	2cc\
1GG	1G	4G\	1b
.	.	8F/	.
.	.	8E/	.
.	.	4D/	.
.	.	4E/	.
=76	=76	=76	=76
2.DD/	1.A	1F	2a\
.	.	.	2ff\
4DD/	.	.	.
2FF/	.	2F/	2ff\
2FF/	2c/	2F/	2cc\
=77-	=77-	=77-	=77-
4CC/	2c/	2E/	2.ee\
4DD/	.	.	.
4EE/	2G/	2E/	.
4FF/	.	.	8dd\
.	.	.	8cc\
2GG/	2d\	2D/	4b\
.	.	.	4g/
2CC/	2c/	2G\	[<2cc\
=78	=78	=78	=78
1.GG	2G/	1.G	2cc\]
.	2.g\	.	4b\
.	.	.	4a\
.	.	.	2b\
.	4f\	.	.
2GG/	2d\	2G\	2b\
=79-	=79-	=79-	=79-
2CC/	1.e	4G\	2cc\
.	.	4F/	.
2C\	.	4E/	2ee\
.	.	4D/	.
2C\	.	4E/	2ee\
.	.	8D/	.
.	.	8C/	.
2BB/	2r	2D/	2dd\
=80	=80	=80	=80
1.AA	2r	2E/	4cc\
.	.	.	4b\
.	1c	2E/	4a\
.	.	.	4b\
.	.	1E	4cc\
.	.	.	4dd\
2EE/	2G/	.	2ee\
=81-	=81-	=81-	=81-
1.FF	1.c	2.A\	2.cc\
.	.	4G\	4b\
.	.	2F\	2a\
2FF/	2c/	2C/	1ff
=82-	=82-	=82-	=82-
0CCl	0cl	0Cl	.
.	.	.	4ee\
.	.	.	4dd\
.	.	.	1eel
==	==	==	==
*-	*-	*-	*-
!!!system-decoration: *
!!!RDF**kern: > = above
!!!RDF**kern: < = below
!!!RDF**kern: l = terminal long
!!!ENC: Andrzej Gręziak
!!!END: 2021-12-14
!!!ENC: Andrzej Kubiczek
!!!END: 2021-12-27
